X:1
T:Glory be to Jesus
T:Glory be to Jesus
T:Hayes O.
C:Hayes O.
%%score { ( 1 2 ) | ( 3 4 ) }
L:1/8
Q:1/4=144
M:4/2
K:C
V:1 treble nm="MusicXML Part"
V:2 treble 
V:3 bass 
V:4 bass 
V:1
 d4 c4 B4 A4 | (A4 G4) E8 | F4 G4 A4"^Crosshaven" B4 | A8 A4 G4 | c4 B4 (A4 F4) | G8 A4 G4 | %6
w: Glo- ry be to|Je- * sus,|who in bit- ter|pains, poured for|me the life _|blood, from his|
 A4 c4 d8 |] %7
w: sa- cred veins.|
V:2
 F4 G4 G4 E4 | (F4 D4) C8 | C4 E4 F4 D4 | F8 F4 E4 | G4 G4 (E4 F4) | D8 E4 E4 | F4 D4 F8 |] %7
V:3
 A,4 C4 D4 C4 | (D4 B,4) G,8 | A,4 C4 D4 B,4 | D8 C4 C4 | C4 D4 (C4 D4) | B,8 C4 C4 | %6
 A,4 G,4 A,8 |] %7
V:4
 D,4 E,4 G,4 A,4 | (D,4 G,4) C,8 | F,4 E,4 D,4 G,4 | D,8 F,4 C,4 | E,4 G,4 A,8 | G,8 A,,4 C,4 | %6
 D,4 B,,4 D,8 |] %7

